www/assets/icons/add_shopping_cart.svg

<svg width="24" height="24" viewBox="0 0 24 24" xmlns="http://www.w3.org/2000/svg" fill='currentColor'><path d="M11.92 9.5H13.92V6.5H16.92V4.5H13.92V1.5H11.92V4.5H8.92004V6.5H11.92V9.5ZM7.92004 18.5C6.82004 18.5 5.93004 19.4 5.93004 20.5C5.93004 21.6 6.82004 22.5 7.92004 22.5C9.02004 22.5 9.92004 21.6 9.92004 20.5C9.92004 19.4 9.02004 18.5 7.92004 18.5ZM17.92 18.5C16.82 18.5 15.93 19.4 15.93 20.5C15.93 21.6 16.82 22.5 17.92 22.5C19.02 22.5 19.92 21.6 19.92 20.5C19.92 19.4 19.02 18.5 17.92 18.5ZM8.09004 15.25L8.12004 15.13L9.02004 13.5H16.47C17.22 13.5 17.88 13.09 18.22 12.47L22.08 5.46L20.34 4.5H20.33L19.23 6.5L16.47 11.5H9.45004L9.32004 11.23L7.08004 6.5L6.13004 4.5L5.19004 2.5H1.92004V4.5H3.92004L7.52004 12.09L6.17004 14.54C6.01004 14.82 5.92004 15.15 5.92004 15.5C5.92004 16.6 6.82004 17.5 7.92004 17.5H19.92V15.5H8.34004C8.21004 15.5 8.09004 15.39 8.09004 15.25Z"/></svg>

<svg xmlns="http://www.w3.org/2000/svg" width="24" height="24" viewBox="0 0 24 24" fill='currentColor'><path d="M11.92 9.5h2v-3h3v-2h-3v-3h-2v3h-3v2h3zm-4 9c-1.1 0-1.99.9-1.99 2s.89 2 1.99 2 2-.9 2-2-.9-2-2-2m10 0c-1.1 0-1.99.9-1.99 2s.89 2 1.99 2 2-.9 2-2-.9-2-2-2m-9.83-3.25.03-.12.9-1.63h7.45c.75 0 1.41-.41 1.75-1.03l3.86-7.01-1.74-.96h-.01l-1.1 2-2.76 5H9.45l-.13-.27L7.08 6.5l-.95-2-.94-2H1.92v2h2l3.6 7.59-1.35 2.45c-.16.28-.25.61-.25.96 0 1.1.9 2 2 2h12v-2H8.34c-.13 0-.25-.11-.25-.25"/></svg>
